X:79
T:The Gravel Walk
M:C
L:1/8
K:ADor
A2 eA ^cAeA|A2 eA BAGB|A2 eA Bdef|ged=c BAGB :|
A2 aA gAfA|A2 eA BAGB|A2 aA gAef|gfge dBGB|
A2 aA gAfA|A2 eA BAGB|ABcd efga|gedc BAGB ||
|:cAAG A2 AB|cA (3AAA BGBd|cAAG A2 ef|gfge dGBG :|
|:c2 gc acgc|c2 gc BAGB|c2 gc acga|gedc BAGB|
c2 gc acgc|c2 gc BAGB|1 ABcd egfa|gedc BAGB :|
E:lw354
|2 Aa (3aaa agea|afge dBGB |>|
E:lw0
